Simply black circles/symbolic/status/software-update-urgent-symbolic.svg

<?xml version="1.0" encoding="UTF-8" standalone="no"?>
<!-- Created with Inkscape (http://www.inkscape.org/) -->

<svg
   xmlns:dc="http://purl.org/dc/elements/1.1/"
   xmlns:cc="http://creativecommons.org/ns#"
   xmlns:rdf="http://www.w3.org/1999/02/22-rdf-syntax-ns#"
   xmlns:svg="http://www.w3.org/2000/svg"
   xmlns="http://www.w3.org/2000/svg"
   xmlns:xlink="http://www.w3.org/1999/xlink"
   xmlns:sodipodi="http://sodipodi.sourceforge.net/DTD/sodipodi-0.dtd"
   xmlns:inkscape="http://www.inkscape.org/namespaces/inkscape"
   id="svg3334"
   width="24"
   height="24"
   version="1.0"
   sodipodi:docname="software-update-urgent-symbolic.svg"
   inkscape:version="0.92.3 (2405546, 2018-03-11)">
  <metadata
     id="metadata40">
    <rdf:RDF>
      <cc:Work
         rdf:about="">
        <dc:format>image/svg+xml</dc:format>
        <dc:type
           rdf:resource="http://purl.org/dc/dcmitype/StillImage" />
        <dc:title></dc:title>
      </cc:Work>
    </rdf:RDF>
  </metadata>
  <sodipodi:namedview
     pagecolor="#ffffff"
     bordercolor="#666666"
     borderopacity="1"
     objecttolerance="10"
     gridtolerance="10"
     guidetolerance="10"
     inkscape:pageopacity="0"
     inkscape:pageshadow="2"
     inkscape:window-width="1366"
     inkscape:window-height="719"
     id="namedview38"
     showgrid="false"
     inkscape:zoom="7.8371002"
     inkscape:cx="-14.47663"
     inkscape:cy="11.489607"
     inkscape:window-x="0"
     inkscape:window-y="25"
     inkscape:window-maximized="1"
     inkscape:current-layer="svg3334"
     inkscape:snap-global="false"
     showguides="true"
     inkscape:guide-bbox="true" />
  <defs
     id="defs3336">
    <linearGradient
       id="linearGradient2877"
       x1="25.058001"
       x2="25.058001"
       y1="47.028"
       y2="39.999001"
       gradientUnits="userSpaceOnUse">
      <stop
         id="stop3704"
         style="stop-opacity:0"
         offset="0" />
      <stop
         id="stop3710"
         offset=".5" />
      <stop
         id="stop3706"
         style="stop-opacity:0"
         offset="1" />
    </linearGradient>
    <radialGradient
       id="radialGradient2875"
       cx="4.993"
       cy="43.5"
       r="2.5"
       gradientTransform="matrix(2.0038,0,0,1.4,-20.012,-104.4)"
       gradientUnits="userSpaceOnUse"
       xlink:href="#linearGradient3688" />
    <linearGradient
       id="linearGradient3688">
      <stop
         id="stop3690"
         offset="0" />
      <stop
         id="stop3692"
         style="stop-opacity:0"
         offset="1" />
    </linearGradient>
    <radialGradient
       id="radialGradient2873"
       cx="4.993"
       cy="43.5"
       r="2.5"
       gradientTransform="matrix(2.0038,0,0,1.4,27.988,-17.4)"
       gradientUnits="userSpaceOnUse"
       xlink:href="#linearGradient3688" />
    <linearGradient
       id="linearGradient2865"
       x1="24"
       x2="24"
       y1="44"
       y2="3.8989999"
       gradientTransform="translate(0,0.96744)"
       gradientUnits="userSpaceOnUse">
      <stop
         id="stop2492"
         style="stop-color:#791235"
         offset="0" />
      <stop
         id="stop2494"
         style="stop-color:#dd3b27"
         offset="1" />
    </linearGradient>
    <radialGradient
       id="radialGradient2863"
       cx="12.011"
       cy="10.424"
       r="20"
       gradientTransform="matrix(5.6342e-8,1.6801,-2.4235,1.0381e-8,44.478,-5.9267)"
       gradientUnits="userSpaceOnUse">
      <stop
         id="stop3244"
         style="stop-color:#f89b7e"
         offset="0" />
      <stop
         id="stop3246"
         style="stop-color:#e35d4f"
         offset=".26238" />
      <stop
         id="stop3248"
         style="stop-color:#c6262e"
         offset=".66094" />
      <stop
         id="stop3250"
         style="stop-color:#690b2c"
         offset="1" />
    </radialGradient>
    <linearGradient
       id="linearGradient2855"
       x1="24"
       x2="24"
       y1="5"
       y2="43"
       gradientTransform="translate(0,0.96744)"
       gradientUnits="userSpaceOnUse">
      <stop
         id="stop3310-1-4"
         style="stop-color:#fff"
         offset="0" />
      <stop
         id="stop3312-5-3"
         style="stop-color:#fff;stop-opacity:0"
         offset="1" />
    </linearGradient>
  </defs>
  <path
     style="fill:#808080;fill-opacity:1;stroke-width:0.26165536"
     d="M 12 0.15820312 A 11.84323 11.84323 0 0 0 0.15625 12.001953 A 11.84323 11.84323 0 0 0 12 23.841797 A 11.84323 11.84323 0 0 0 23.84375 12.001953 A 11.84323 11.84323 0 0 0 12 0.15820312 z M 11.462891 1.9355469 L 8.8964844 4.5039062 L 5.203125 4.5039062 A 10.181907 10.181907 0 0 1 11.462891 1.9355469 z M 12.644531 1.9511719 A 10.181907 10.181907 0 0 1 18.730469 4.5039062 L 15.197266 4.5039062 L 12.644531 1.9511719 z M 4.4414062 5.2558594 L 4.4414062 8.9589844 L 1.8085938 11.591797 A 10.181907 10.181907 0 0 1 4.4414062 5.2558594 z M 19.558594 5.3339844 A 10.181907 10.181907 0 0 1 22.125 11.433594 L 19.558594 8.8691406 L 19.558594 5.3339844 z M 9.8027344 6.671875 L 14.162109 6.671875 L 14.162109 10.404297 L 14.304688 10.404297 L 17.587891 10.404297 L 11.982422 19.996094 L 6.3789062 10.404297 L 9.8027344 10.404297 L 9.8027344 6.671875 z M 11.84375 7.4453125 C 11.439777 7.5153818 11.083547 7.8415651 11.029297 8.2636719 C 11.017317 8.3343199 11.011719 8.4068826 11.011719 8.4785156 C 11.245886 10.765913 11.513571 13.037559 11.712891 15.333984 L 12.349609 15.333984 C 12.514954 13.128733 12.782233 10.936795 12.974609 8.734375 C 13.072678 8.2128649 12.804624 7.5934932 12.253906 7.4667969 C 12.117862 7.4270209 11.978408 7.4219565 11.84375 7.4453125 z M 22.130859 12.466797 A 10.181907 10.181907 0 0 1 19.558594 18.873047 L 19.558594 15.039062 L 22.130859 12.466797 z M 1.796875 12.486328 L 4.4414062 15.130859 L 4.4414062 18.947266 A 10.181907 10.181907 0 0 1 1.796875 12.486328 z M 11.933594 15.683594 C 11.701853 15.684426 11.472765 15.759608 11.292969 15.923828 C 11.050603 16.122949 10.888684 16.420254 10.896484 16.738281 C 10.871744 17.419138 11.622042 17.954112 12.261719 17.738281 C 12.881225 17.580158 13.208157 16.801586 12.890625 16.248047 C 12.712978 15.890441 12.319829 15.682194 11.933594 15.683594 z M 4.9785156 19.494141 L 8.8027344 19.494141 L 11.574219 22.265625 A 10.181907 10.181907 0 0 1 4.9785156 19.494141 z M 15.103516 19.494141 L 18.962891 19.494141 A 10.181907 10.181907 0 0 1 12.328125 22.271484 L 15.103516 19.494141 z "
     id="path838" />
</svg>

<svg xmlns="http://www.w3.org/2000/svg" width="24" height="24" version="1"><defs><linearGradient id="a"><stop offset="0"/><stop offset="1" stop-opacity="0"/></linearGradient></defs><path d="M12 .158A11.843 11.843 0 0 0 .156 12.002 11.843 11.843 0 0 0 12 23.842a11.843 11.843 0 0 0 11.844-11.84A11.843 11.843 0 0 0 12 .158zm-.537 1.778L8.896 4.504H5.203a10.182 10.182 0 0 1 6.26-2.568zm1.182.015a10.182 10.182 0 0 1 6.085 2.553h-3.533L12.645 1.95zM4.44 5.256v3.703L1.81 11.592A10.182 10.182 0 0 1 4.44 5.256zm15.118.078a10.182 10.182 0 0 1 2.566 6.1l-2.566-2.565V5.334zM9.803 6.672h4.36v3.732h3.425l-5.606 9.592-5.603-9.592h3.424V6.672zm2.04.773c-.403.07-.76.397-.814.819a1.29 1.29 0 0 0-.017.215c.234 2.287.502 4.559.7 6.855h.638c.165-2.205.432-4.397.625-6.6.098-.521-.17-1.14-.721-1.267a.905.905 0 0 0-.41-.022zm10.288 5.022a10.182 10.182 0 0 1-2.572 6.406v-3.834l2.572-2.572zm-20.334.02L4.44 15.13v3.816a10.182 10.182 0 0 1-2.644-6.46zm10.137 3.197a.943.943 0 0 0-.641.24 1.04 1.04 0 0 0-.397.814c-.024.681.726 1.216 1.366 1 .62-.158.946-.936.629-1.49-.178-.358-.571-.566-.957-.564zm-6.955 3.81h3.824l2.771 2.772a10.182 10.182 0 0 1-6.595-2.772zm10.125 0h3.859a10.182 10.182 0 0 1-6.635 2.777l2.776-2.777z" fill="gray"/></svg>
